svg/grade_b.svg

<svg xmlns="http://www.w3.org/2000/svg" width="24" height="24" viewBox="0 0 24 24"><title>px_grade_b_24px</title><path d="M12 12.59h-1.33v2.61h1.38a2 2 0 0 0 1.3-.34 1.24 1.24 0 0 0 .41-1c0-.86-.59-1.27-1.76-1.27zM13.15 10.65a1 1 0 0 0 .39-.89.88.88 0 0 0-.42-.82 2.68 2.68 0 0 0-1.33-.25h-1.12v2.22h1.23a2.33 2.33 0 0 0 1.25-.26z"/><path d="M12 2a10 10 0 1 0 10 10A10 10 0 0 0 12 2zm3 14.18a4.3 4.3 0 0 1-2.69.77H8.55V7h3.12a6 6 0 0 1 3.08.61 2.09 2.09 0 0 1 1 1.92 2.42 2.42 0 0 1-.46 1.47 1.62 1.62 0 0 1-1.12.69v.07a2.21 2.21 0 0 1 1.37.79 2.61 2.61 0 0 1 .46 1.5 2.53 2.53 0 0 1-1 2.13z"/></svg>

<svg xmlns="http://www.w3.org/2000/svg" width="24" height="24" viewBox="0 0 24 24">
  <g>
    <path d="M12,12.59H10.67V15.2h1.38a2,2,0,0,0,1.3-.34,1.24,1.24,0,0,0,.41-1C13.76,13,13.17,12.59,12,12.59Z"/>
    <path d="M13.15,10.65a1,1,0,0,0,.39-.89.88.88,0,0,0-.42-.82,2.68,2.68,0,0,0-1.33-.25H10.67v2.22H11.9A2.33,2.33,0,0,0,13.15,10.65Z"/>
    <path d="M12,2A10,10,0,1,0,22,12,10,10,0,0,0,12,2Zm3,14.18a4.3,4.3,0,0,1-2.69.77H8.55V7h3.12a6,6,0,0,1,3.08.61,2.09,2.09,0,0,1,1,1.92A2.42,2.42,0,0,1,15.29,11a1.62,1.62,0,0,1-1.12.69v.07a2.21,2.21,0,0,1,1.37.79A2.61,2.61,0,0,1,16,14.05,2.53,2.53,0,0,1,15,16.18Z"/>
  </g>
</svg>
